resources/svg/border-outer-o.svg

<svg xmlns="http://www.w3.org/2000/svg" viewBox="0 0 15 15" fill="none"><path d="M7 4.5H8M10 7.5H11M7 7.5H8M7 10.5H8M4 7.5H5M1.5 1.5H13.5V13.5H1.5V1.5Z" stroke="black"/></svg>

<svg xmlns="http://www.w3.org/2000/svg" viewBox="0 0 15 15" fill="none"><path d="M7 4.5h1m2 3h1m-4 0h1m-1 3h1m-4-3h1m-3.5-6h12v12h-12v-12z" stroke="currentColor"/></svg>
